src/card_system/max/visa.svg

<svg viewBox="0 0 84 40" fill="none" xmlns="http://www.w3.org/2000/svg">
<path fill-rule="evenodd" clip-rule="evenodd" d="M50.6903 11C52.4952 11 53.955 11.4034 54.8753 11.7687L54.2407 15.6674L53.8187 15.4757C52.9744 15.1106 51.8599 14.7458 50.343 14.7844C48.5008 14.7844 47.6746 15.5714 47.6555 16.3399C47.6555 17.1851 48.6549 17.7421 50.2869 18.5683C52.9752 19.8552 54.2221 21.43 54.2035 23.4854C54.1657 27.2309 50.9783 29.6513 46.0824 29.6513C43.9891 29.6319 41.9729 29.1893 40.8786 28.6904L41.5315 24.6375L42.1459 24.9259C43.6628 25.5989 44.661 25.8863 46.5238 25.8863C47.8672 25.8863 49.3076 25.3288 49.326 24.1192C49.326 23.3317 48.7123 22.755 46.9071 21.8714C45.1409 21.0068 42.7795 19.5664 42.8177 16.9732C42.8376 13.4584 46.0824 11 50.6903 11ZM33.295 29.382H37.961L40.8792 11.327H36.2134L33.295 29.382ZM61.0768 22.9858C61.4611 21.9485 62.9397 17.9341 62.9397 17.9341C62.9318 17.9497 62.9929 17.7803 63.0838 17.5284L63.0838 17.5283C63.2178 17.1568 63.4163 16.6061 63.5536 16.2056L63.8797 17.7613C63.8797 17.7613 64.7633 22.0831 64.9551 22.9858H61.0768ZM66.8364 11.327H63.2272C62.1143 11.327 61.2687 11.6533 60.7885 12.8251L53.8577 29.3818H58.7536C58.7536 29.3818 59.5597 27.1534 59.7329 26.6734H65.7237C65.8576 27.3073 66.2804 29.3818 66.2804 29.3818H70.6007L66.8364 11.327ZM29.3958 11.327L24.8262 23.6388L24.327 21.1424L24.3278 21.1447L22.6959 12.8468C22.4272 11.6937 21.6015 11.3671 20.5839 11.3291H13.0768L13 11.6939C14.8308 12.1623 16.4682 12.8373 17.903 13.6765L22.0614 29.3629H26.9955L34.3297 11.327H29.3958Z" fill="#1A1F71"/>
</svg>

<svg xmlns="http://www.w3.org/2000/svg" viewBox="0 0 84 40"><defs><style>.cls-1{fill:#1a1f71;fill-rule:evenodd;}</style></defs><path class="cls-1" d="M50.69,11a11.4,11.4,0,0,1,4.19.77l-.64,3.9-.42-.19a8,8,0,0,0-3.48-.7c-1.84,0-2.67.79-2.68,1.56s1,1.4,2.63,2.23c2.69,1.29,3.93,2.86,3.91,4.92,0,3.74-3.22,6.16-8.12,6.16a14.16,14.16,0,0,1-5.2-1l.65-4.05.62.29a9.27,9.27,0,0,0,4.37,1c1.35,0,2.79-.56,2.81-1.77,0-.79-.62-1.37-2.42-2.25s-4.13-2.3-4.09-4.9C42.84,13.46,46.08,11,50.69,11ZM33.29,29.38H38l2.92-18H36.21ZM61.08,23l1.86-5.06.14-.4h0c.14-.37.34-.92.47-1.32l.33,1.55S64.76,22.08,65,23Zm5.76-11.66H63.23a2.29,2.29,0,0,0-2.44,1.5L53.86,29.38h4.89l1-2.71h6c.14.64.56,2.71.56,2.71H70.6Zm-37.44,0L24.83,23.64l-.5-2.5h0L22.7,12.85a1.94,1.94,0,0,0-2.12-1.52h-7.5l-.08.36a19,19,0,0,1,4.9,2l4.16,15.68H27l7.33-18Z"/></svg>
